img/icons/icon-order.svg

<svg width="67" height="52" viewBox="0 0 67 52" fill="none" xmlns="http://www.w3.org/2000/svg">
<path d="M54.6833 39.4846H58.8546C59.3892 39.4846 59.8226 39.0514 59.8226 38.5167V5.13934C59.8226 4.60462 59.3892 4.17136 58.8546 4.17136H7.22634C6.69176 4.17136 6.25836 4.60462 6.25836 5.13934V38.5167C6.25836 39.0514 6.69176 39.4846 7.22634 39.4846H50.1531C50.6877 39.4846 51.1211 39.0514 51.1211 38.5167C51.1211 37.9819 50.6877 37.5487 50.1531 37.5487H8.19433V6.10732H57.8867V37.5487H54.6833C54.1487 37.5487 53.7153 37.9819 53.7153 38.5167C53.7153 39.0514 54.1487 39.4846 54.6833 39.4846Z" fill="#AE7C78"/>
<path d="M65.1129 41.72H63.9952V3.57508C63.9952 1.60375 62.3908 0 60.4189 0H15.538C15.0035 0 14.5701 0.433269 14.5701 0.967982C14.5701 1.5027 15.0035 1.93596 15.538 1.93596H60.4189C61.3233 1.93596 62.0593 2.67124 62.0593 3.57508V41.72H4.02164V3.57508C4.02164 2.67124 4.75757 1.93596 5.66205 1.93596H11.0131C11.5476 1.93596 11.981 1.5027 11.981 0.967982C11.981 0.433269 11.5476 0 11.0131 0H5.66205C3.69008 0 2.08568 1.60375 2.08568 3.57508V41.72H0.967982C0.433398 41.72 0 42.1533 0 42.688V47.9035C0 50.1624 1.83775 52 4.0965 52H8.84736C9.38194 52 9.81534 51.5667 9.81534 51.032C9.81534 50.4973 9.38194 50.064 8.84736 50.064H4.0965C2.90524 50.064 1.93596 49.0948 1.93596 47.9035V43.656H25.8099L26.3296 45.3192C26.7986 46.8199 28.1701 47.8281 29.7423 47.8281H36.3383C37.9106 47.8281 39.282 46.8199 39.751 45.3192L40.2708 43.656H64.1449V47.9035C64.1449 49.0948 63.1757 50.064 61.9844 50.064H13.3775C12.8429 50.064 12.4095 50.4973 12.4095 51.032C12.4095 51.5667 12.8429 52 13.3775 52H61.9844C64.2432 52 66.0809 50.1624 66.0809 47.9035V42.688C66.0809 42.1533 65.6475 41.72 65.1129 41.72ZM37.9033 44.7417C37.6883 45.4299 37.0594 45.8922 36.3384 45.8922H29.7425C29.0215 45.8922 28.3926 45.4299 28.1776 44.7417L27.8383 43.656H38.2426L37.9033 44.7417Z" fill="#AE7C78"/>
<path d="M24.3053 23.3175C24.7667 23.3175 25.164 22.9919 25.2545 22.5394L26.4279 16.6724C26.4847 16.3881 26.4111 16.0932 26.2274 15.8689C26.0434 15.6447 25.7688 15.5146 25.4788 15.5146H18.0473C17.5127 15.5146 17.0793 15.9478 17.0793 16.4826C17.0793 17.0173 17.5127 17.4505 18.0473 17.4505H24.298L23.5117 21.3816H15.9856L14.6969 14.3523C14.6126 13.8926 14.2121 13.559 13.7448 13.559H11.3981C10.8635 13.559 10.4301 13.9923 10.4301 14.527C10.4301 15.0617 10.8635 15.495 11.3981 15.495H12.9383L14.2111 22.4376V26.5217C14.2111 27.0564 14.6445 27.4897 15.1791 27.4897H15.2244C15.1958 27.5969 15.1791 27.7091 15.1791 27.8254C15.1791 28.5454 15.7628 29.1292 16.4829 29.1292C17.0736 29.1292 17.5718 28.7362 17.7321 28.1975C17.7702 28.075 17.7907 27.9448 17.7907 27.8098C17.7907 27.6991 17.7755 27.5923 17.7495 27.4897H19.9179C19.913 27.509 19.9071 27.5281 19.9031 27.5479C19.8836 27.6375 19.8727 27.7301 19.8727 27.8255C19.8727 28.5455 20.4565 29.1293 21.1766 29.1293C21.8073 29.1293 22.3334 28.6813 22.4542 28.0862C22.4734 27.9972 22.4841 27.9047 22.4841 27.8099C22.4841 27.6993 22.4689 27.5924 22.4429 27.4898H22.7411C23.2757 27.4898 23.7091 27.0565 23.7091 26.5218C23.7091 25.9871 23.2757 25.5538 22.7411 25.5538H16.1472V23.3178H24.3053V23.3175Z" fill="#AE7C78"/>
<path d="M37.3983 11.3977C37.3983 10.863 36.9649 10.4297 36.4303 10.4297H32.2583C31.7237 10.4297 31.2903 10.863 31.2903 11.3977V15.5698C31.2903 16.1046 31.7237 16.5378 32.2583 16.5378H36.4303C36.9649 16.5378 37.3983 16.1046 37.3983 15.5698V11.3977ZM35.4623 14.6019H33.2262V12.3658H35.4623V14.6019Z" fill="#AE7C78"/>
<path d="M40.6022 16.5378H49.4677C50.0023 16.5378 50.4357 16.1046 50.4357 15.5699C50.4357 15.0353 50.0023 14.6021 49.4677 14.6021H40.6022C40.0676 14.6021 39.6342 15.0353 39.6342 15.5699C39.6342 16.1046 40.0676 16.5378 40.6022 16.5378Z" fill="#AE7C78"/>
<path d="M40.6022 12.3658H54.6829C55.2174 12.3658 55.6508 11.9325 55.6508 11.3978C55.6508 10.8631 55.2174 10.4298 54.6829 10.4298H40.6022C40.0676 10.4298 39.6342 10.8631 39.6342 11.3978C39.6342 11.9325 40.0676 12.3658 40.6022 12.3658Z" fill="#AE7C78"/>
<path d="M37.3983 19.7419C37.3983 19.2072 36.9649 18.774 36.4303 18.774H32.2583C31.7237 18.774 31.2903 19.2072 31.2903 19.7419V23.9139C31.2903 24.4487 31.7237 24.8819 32.2583 24.8819H36.4303C36.9649 24.8819 37.3983 24.4487 37.3983 23.9139V19.7419ZM35.4623 22.946H33.2262V20.7099H35.4623V22.946Z" fill="#AE7C78"/>
<path d="M40.6022 24.8818H49.4677C50.0023 24.8818 50.4357 24.4486 50.4357 23.9139C50.4357 23.3793 50.0023 22.946 49.4677 22.946H40.6022C40.0676 22.946 39.6342 23.3793 39.6342 23.9139C39.6342 24.4486 40.0676 24.8818 40.6022 24.8818Z" fill="#AE7C78"/>
<path d="M40.6022 20.7099H54.6829C55.2174 20.7099 55.6508 20.2767 55.6508 19.7419C55.6508 19.2072 55.2174 18.774 54.6829 18.774H40.6022C40.0676 18.774 39.6342 19.2072 39.6342 19.7419C39.6342 20.2767 40.0676 20.7099 40.6022 20.7099Z" fill="#AE7C78"/>
<path d="M36.4303 27.1181H32.2583C31.7237 27.1181 31.2903 27.5514 31.2903 28.0861V32.2581C31.2903 32.7928 31.7237 33.2261 32.2583 33.2261H36.4303C36.9649 33.2261 37.3983 32.7928 37.3983 32.2581V28.0861C37.3983 27.5515 36.9649 27.1181 36.4303 27.1181ZM35.4623 31.2901H33.2262V29.0541H35.4623V31.2901Z" fill="#AE7C78"/>
<path d="M40.6022 31.2901C40.0676 31.2901 39.6342 31.7233 39.6342 32.2581C39.6342 32.7928 40.0676 33.226 40.6022 33.226H49.4678C50.0023 33.226 50.4357 32.7928 50.4357 32.2581C50.4357 31.7233 50.0023 31.2901 49.4678 31.2901H40.6022Z" fill="#AE7C78"/>
<path d="M55.6508 28.0861C55.6508 27.5514 55.2174 27.1182 54.6828 27.1182H40.6022C40.0676 27.1182 39.6342 27.5514 39.6342 28.0861C39.6342 28.6207 40.0676 29.054 40.6022 29.054H54.6828C55.2174 29.054 55.6508 28.6207 55.6508 28.0861Z" fill="#AE7C78"/>
</svg>

<svg width="67" height="52" fill="none" xmlns="http://www.w3.org/2000/svg"><path d="M54.683 39.485h4.172a.968.968 0 00.968-.968V5.139a.968.968 0 00-.968-.968H7.226a.968.968 0 00-.968.968v33.378c0 .534.434.968.968.968h42.927a.968.968 0 100-1.936H8.194V6.107h49.693V37.55h-3.204a.968.968 0 100 1.936z" fill="#AE7C78"/><path d="M65.113 41.72h-1.118V3.575A3.58 3.58 0 0060.42 0H15.538a.968.968 0 000 1.936h44.88c.905 0 1.641.735 1.641 1.64V41.72H4.022V3.575c0-.904.736-1.639 1.64-1.639h5.351a.968.968 0 100-1.936H5.662a3.58 3.58 0 00-3.576 3.575V41.72H.968a.968.968 0 00-.968.968v5.215A4.101 4.101 0 004.096 52h4.751a.968.968 0 100-1.936h-4.75c-1.192 0-2.161-.97-2.161-2.16v-4.248H25.81l.52 1.663a3.56 3.56 0 003.412 2.51h6.596a3.56 3.56 0 003.413-2.51l.52-1.663h23.874v4.248c0 1.19-.97 2.16-2.16 2.16H13.376a.968.968 0 100 1.936h48.607a4.101 4.101 0 004.097-4.096v-5.216a.968.968 0 00-.968-.968zm-27.21 3.022a1.632 1.632 0 01-1.565 1.15h-6.596c-.72 0-1.35-.462-1.564-1.15l-.34-1.086h10.405l-.34 1.086z" fill="#AE7C78"/><path d="M24.305 23.317a.968.968 0 00.95-.778l1.173-5.867a.969.969 0 00-.95-1.157h-7.43a.968.968 0 100 1.936h6.25l-.786 3.93h-7.526l-1.29-7.029a.968.968 0 00-.951-.793h-2.347a.968.968 0 100 1.936h1.54l1.273 6.943v4.084c0 .534.434.968.968.968h.045a1.3 1.3 0 001.259 1.64c.59 0 1.089-.394 1.25-.932a1.303 1.303 0 00.017-.708h2.168l-.015.058a1.302 1.302 0 001.274 1.581c.63 0 1.156-.448 1.277-1.043a1.31 1.31 0 00-.011-.596h.298a.968.968 0 100-1.936h-6.594v-2.236h8.158zM37.398 11.398a.968.968 0 00-.968-.968h-4.172a.968.968 0 00-.968.968v4.172c0 .535.434.968.968.968h4.172a.968.968 0 00.968-.968v-4.172zm-1.936 3.204h-2.236v-2.236h2.236v2.236zM40.602 16.538h8.866a.968.968 0 100-1.936h-8.866a.968.968 0 100 1.936zM40.602 12.366h14.08a.968.968 0 000-1.936h-14.08a.968.968 0 100 1.936zM37.398 19.742a.968.968 0 00-.968-.968h-4.172a.968.968 0 00-.968.968v4.172c0 .535.434.968.968.968h4.172a.968.968 0 00.968-.968v-4.172zm-1.936 3.204h-2.236V20.71h2.236v2.236zM40.602 24.882h8.866a.968.968 0 100-1.936h-8.866a.968.968 0 100 1.936zM40.602 20.71h14.08a.968.968 0 100-1.936h-14.08a.968.968 0 100 1.936zM36.43 27.118h-4.172a.968.968 0 00-.968.968v4.172c0 .535.434.968.968.968h4.172a.968.968 0 00.968-.968v-4.172a.968.968 0 00-.968-.968zm-.968 4.172h-2.236v-2.236h2.236v2.236zM40.602 31.29a.968.968 0 100 1.936h8.866a.968.968 0 100-1.936h-8.866zM55.65 28.086a.968.968 0 00-.967-.968h-14.08a.968.968 0 100 1.936h14.08a.968.968 0 00.968-.968z" fill="#AE7C78"/></svg>
